report_00007_2020-12-11T15:55:29.892Z/first-cpu-idle/comparison/line/7_vs_8.svg

<svg width="640" height="500" xmlns="http://www.w3.org/2000/svg" xmlns:xlink="http://www.w3.org/1999/xlink"><path fill="#fff" d="M0 0h640v500H0z"/><defs><path id="d" stroke-width=".222" stroke="currentColor" d="M-1-1h2v2h-2z"/><path id="b" stroke-width=".222" stroke="currentColor" d="M0-1.33l-1.33 2h2.66z"/><path id="f" stroke-width=".222" stroke="currentColor" d="M0 1.33L1.265.411.782-1.067l-1.564-.009-.483 1.487z"/><use xlink:href="#b" id="c" stroke="currentColor" transform="rotate(180)"/><use xlink:href="#d" id="e" stroke="currentColor" transform="rotate(45)"/><circle id="a" stroke-width=".222" stroke="currentColor" cx="0" cy="0" r="1"/></defs><g fill="none" color="#000" stroke="currentColor"><path stroke="#000" d="M62.2 361.6h9m543.8 0h-9"/><text transform="translate(53.9 365.5)" stroke="none" fill="#000" font-family="Arial" font-size="12" text-anchor="end"><tspan>1850</tspan></text></g><g fill="none" color="#000" stroke="currentColor"><path stroke="#000" d="M62.2 278.9h9m543.8 0h-9"/><text transform="translate(53.9 282.8)" stroke="none" fill="#000" font-family="Arial" font-size="12" text-anchor="end"><tspan>1900</tspan></text></g><g fill="none" color="#000" stroke="currentColor"><path stroke="#000" d="M62.2 196.2h9m543.8 0h-9"/><text transform="translate(53.9 200.1)" stroke="none" fill="#000" font-family="Arial" font-size="12" text-anchor="end"><tspan>1950</tspan></text></g><g fill="none" color="#000" stroke="currentColor"><path stroke="#000" d="M62.2 113.5h9m543.8 0h-9"/><text transform="translate(53.9 117.4)" stroke="none" fill="#000" font-family="Arial" font-size="12" text-anchor="end"><tspan>2000</tspan></text></g><g fill="none" color="#000" stroke="currentColor"><path stroke="#000" d="M62.2 30.7h9m543.8 0h-9"/><text transform="translate(53.9 34.6)" stroke="none" fill="#000" font-family="Arial" font-size="12" text-anchor="end"><tspan>2050</tspan></text></g><g fill="none" color="#000" stroke="currentColor"><path stroke="#000" d="M62.2 428v-9m0-400.9v9"/><text transform="translate(62.2 449.9)" stroke="none" fill="#000" font-family="Arial" font-size="12" text-anchor="middle"><tspan>0</tspan></text></g><g fill="none" color="#000" stroke="currentColor"><path stroke="#000" d="M118 428v-9m0-400.9v9"/><text transform="translate(118 449.9)" stroke="none" fill="#000" font-family="Arial" font-size="12" text-anchor="middle"><tspan>10</tspan></text></g><g fill="none" color="#000" stroke="currentColor"><path stroke="#000" d="M173.9 428v-9m0-400.9v9"/><text transform="translate(173.9 449.9)" stroke="none" fill="#000" font-family="Arial" font-size="12" text-anchor="middle"><tspan>20</tspan></text></g><g fill="none" color="#000" stroke="currentColor"><path stroke="#000" d="M229.7 428v-9m0-400.9v9"/><text transform="translate(229.7 449.9)" stroke="none" fill="#000" font-family="Arial" font-size="12" text-anchor="middle"><tspan>30</tspan></text></g><g fill="none" color="#000" stroke="currentColor"><path stroke="#000" d="M285.6 428v-9m0-400.9v9"/><text transform="translate(285.6 449.9)" stroke="none" fill="#000" font-family="Arial" font-size="12" text-anchor="middle"><tspan>40</tspan></text></g><g fill="none" color="#000" stroke="currentColor"><path stroke="#000" d="M341.4 428v-9m0-400.9v9"/><text transform="translate(341.4 449.9)" stroke="none" fill="#000" font-family="Arial" font-size="12" text-anchor="middle"><tspan>50</tspan></text></g><g fill="none" color="#000" stroke="currentColor"><path stroke="#000" d="M397.2 428v-9m0-400.9v9"/><text transform="translate(397.2 449.9)" stroke="none" fill="#000" font-family="Arial" font-size="12" text-anchor="middle"><tspan>60</tspan></text></g><g fill="none" color="#000" stroke="currentColor"><path stroke="#000" d="M453.1 428v-9m0-400.9v9"/><text transform="translate(453.1 449.9)" stroke="none" fill="#000" font-family="Arial" font-size="12" text-anchor="middle"><tspan>70</tspan></text></g><g fill="none" color="#000" stroke="currentColor"><path stroke="#000" d="M508.9 428v-9m0-400.9v9"/><text transform="translate(508.9 449.9)" stroke="none" fill="#000" font-family="Arial" font-size="12" text-anchor="middle"><tspan>80</tspan></text></g><g fill="none" color="#000" stroke="currentColor"><path stroke="#000" d="M564.7 428v-9m0-400.9v9"/><text transform="translate(564.7 449.9)" stroke="none" fill="#000" font-family="Arial" font-size="12" text-anchor="middle"><tspan>90</tspan></text></g><path stroke="#000" d="M62.2 18.1V428H615V18.1H62.2z" fill="none" color="#000"/><text transform="translate(279.8 467.9)" stroke="none" fill="#000" font-family="Arial" font-size="12" text-anchor="end" color="#000"><tspan>pages+cached+noexternal+nosvg</tspan></text><path stroke="#9400D3" d="M288.1 464h42.2M62.2 417.2l5.6.1 5.6-5.7 5.6 2.7 5.5 1.5 5.6 1.8 5.6-9 5.6-.3 5.6 4.4 5.6-1.9 5.5 1 5.6 2.2 5.6-388 5.6 391.5 5.6-8.2 5.6.5 5.5 5.9 5.6.4 5.6-2.6 5.6-372.9 5.6 371 5.6 2.5 5.5-.2 5.6-2.3 5.6 3.7 5.6-2 5.6-2.8 5.6 2.8 5.5 2.4 5.6.6 5.6-4.8 5.6-.8h5.6l5.6 7.4 5.6-6.8 5.5-377.7 5.6 1.4 5.6 375.1 5.6 2.8 5.6.5 5.6-1.4 5.5 2.1 5.6-1.6 5.6-3.9 5.6 1.8 5.6 3.9 5.6 2 5.5-3 5.6-2.4 5.6-4.8 5.6-372.6L347 411l5.6 3.1 5.5-3.6 5.6 1.8 5.6 7.3 5.6-5.9 5.6-7.3 5.6 5.8 5.5 4 5.6-10.7 5.6 10.8 5.6-3.9 5.6 3.4 5.6-.8 5.5-.9 5.6 2.3 5.6-387.9 5.6 386.1 5.6.1 5.6 1.4 5.6 1.6 5.5-5.1 5.6-2.2 5.6 2.3 5.6.5 5.6 5.2 5.6-6.6 5.5-3.2 5.6 6.7 5.6-4.2 5.6 5.6 5.6.9 5.6-1 5.5-3.2 5.6.3 5.6-3.6 5.6 1.6 5.6-.2 5.6.2 5.5 5.8 5.6-1.6 5.6-3.7 5.6 4.4 5.6-8.8 5.6 4.1 5.5 3.8 5.6-1.7 5.6-1.4 5.6-1.2" fill="none" color="#000"/><text transform="translate(279.8 485.9)" stroke="none" fill="#000" font-family="Arial" font-size="12" text-anchor="end" color="#000"><tspan>pages+cached+noexternal+noimg</tspan></text><path stroke="#009E73" d="M288.1 482h42.2M62.2 414.3l5.6 2 5.6-3.2 5.6.8 5.5-373.1 5.6-4.1 5.6-1.9 5.6 383.4 5.6-380.4 5.6.1 5.5-.6 5.6 376.5 5.6-256.7 5.6-119.5 5.6 375.7L146 33.4l5.5 2.5 5.6 124.5 5.6-124.8 5.6-.5 5.6 379.5L179.5 33l5.5 382.5 5.6-379.2 5.6 382.3 5.6-382.7 5.6 123.4L213 41.5l5.5-6.7 5.6 3.8 5.6 1.6 5.6-10.6 5.6 389.7 5.6-262.3 5.6-111.1 5.5 367.5 5.6-382.9 5.6 133 5.6-126.8 5.6-2.1 5.6 379.8 5.5-4.1 5.6 3 5.6-373.8 5.6 125.5 5.6 250.1 5.6-252.1 5.5-125.2h5.6l5.6 374.3 5.6-369L347 416l5.6-257 5.5-126.2 5.6 387.2 5.6-383.2 5.6 3.5 5.6-4.7 5.6 380.4 5.5-254 5.6-124.1 5.6-4.5 5.6 383.9 5.6-2 5.6-381.2 5.5 382.6 5.6-249.8L436.3 41l5.6 373 5.6-381.1 5.6 128.9 5.6-121.6 5.5 378.1 5.6-3.8 5.6-375.7 5.6 381.3 5.6-376 5.6-8.8 5.5 123.6 5.6 258.7 5.6-258.6 5.6-123.1 5.6 379.3 5.6-252 5.5 252.8 5.6 3.8 5.6-388.1 5.6 5.4 5.6 375.3 5.6 2.9L564.7 40l5.6-3.1 5.6 376.2 5.6-379.7 5.6 1.9 5.6-.5 5.5 381.3 5.6-380.3 5.6 132.2L615 36.7" fill="none" color="#000"/><text transform="translate(579.3 467.9)" stroke="none" fill="#000" font-family="Arial" font-size="12" text-anchor="end" color="#000"><tspan>score p10=3572</tspan></text><path stroke="#56B4E9" d="M587.6 464h42.2" fill="none" color="#000"/><g><text transform="translate(579.3 485.9)" stroke="none" fill="#000" font-family="Arial" font-size="12" text-anchor="end" color="#000"><tspan>score median=6500</tspan></text><path stroke="#E69F00" d="M587.6 482h42.2" fill="none" color="#000"/></g><g fill="none" color="#000" stroke="currentColor"><path stroke="#000" d="M62.2 18.1V428H615V18.1H62.2z"/></g></svg>

<?xml version="1.0" encoding="utf-8"  standalone="no"?>
<svg 
 width="640" height="500"
 viewBox="0 0 640 500"
 xmlns="http://www.w3.org/2000/svg"
 xmlns:xlink="http://www.w3.org/1999/xlink"
>

<title>Gnuplot</title>
<desc>Produced by GNUPLOT 5.4 patchlevel 0 </desc>

<g id="gnuplot_canvas">

<rect x="0" y="0" width="640" height="500" fill="#ffffff"/>
<defs>

	<circle id='gpDot' r='0.5' stroke-width='0.5' stroke='currentColor'/>
	<path id='gpPt0' stroke-width='0.222' stroke='currentColor' d='M-1,0 h2 M0,-1 v2'/>
	<path id='gpPt1' stroke-width='0.222' stroke='currentColor' d='M-1,-1 L1,1 M1,-1 L-1,1'/>
	<path id='gpPt2' stroke-width='0.222' stroke='currentColor' d='M-1,0 L1,0 M0,-1 L0,1 M-1,-1 L1,1 M-1,1 L1,-1'/>
	<rect id='gpPt3' stroke-width='0.222' stroke='currentColor' x='-1' y='-1' width='2' height='2'/>
	<rect id='gpPt4' stroke-width='0.222' stroke='currentColor' fill='currentColor' x='-1' y='-1' width='2' height='2'/>
	<circle id='gpPt5' stroke-width='0.222' stroke='currentColor' cx='0' cy='0' r='1'/>
	<use xlink:href='#gpPt5' id='gpPt6' fill='currentColor' stroke='none'/>
	<path id='gpPt7' stroke-width='0.222' stroke='currentColor' d='M0,-1.33 L-1.33,0.67 L1.33,0.67 z'/>
	<use xlink:href='#gpPt7' id='gpPt8' fill='currentColor' stroke='none'/>
	<use xlink:href='#gpPt7' id='gpPt9' stroke='currentColor' transform='rotate(180)'/>
	<use xlink:href='#gpPt9' id='gpPt10' fill='currentColor' stroke='none'/>
	<use xlink:href='#gpPt3' id='gpPt11' stroke='currentColor' transform='rotate(45)'/>
	<use xlink:href='#gpPt11' id='gpPt12' fill='currentColor' stroke='none'/>
	<path id='gpPt13' stroke-width='0.222' stroke='currentColor' d='M0,1.330 L1.265,0.411 L0.782,-1.067 L-0.782,-1.076 L-1.265,0.411 z'/>
	<use xlink:href='#gpPt13' id='gpPt14' fill='currentColor' stroke='none'/>
	<filter id='textbox' filterUnits='objectBoundingBox' x='0' y='0' height='1' width='1'>
	  <feFlood flood-color='#FFFFFF' flood-opacity='1' result='bgnd'/>
	  <feComposite in='SourceGraphic' in2='bgnd' operator='atop'/>
	</filter>
	<filter id='greybox' filterUnits='objectBoundingBox' x='0' y='0' height='1' width='1'>
	  <feFlood flood-color='lightgrey' flood-opacity='1' result='grey'/>
	  <feComposite in='SourceGraphic' in2='grey' operator='atop'/>
	</filter>
</defs>
<g fill="none" color="#FFFFFF" stroke="black" stroke-width="1.00" stroke-linecap="butt" stroke-linejoin="miter">
</g>
<g fill="none" color="black" stroke="currentColor" stroke-width="1.00" stroke-linecap="butt" stroke-linejoin="miter">
	<path stroke='black'  d='M62.2,361.6 L71.2,361.6 M615.0,361.6 L606.0,361.6  '/>	<g transform="translate(53.9,365.5)" stroke="none" fill="black" font-family="Arial" font-size="12.00"  text-anchor="end">
		<text><tspan font-family="Arial" > 1850</tspan></text>
	</g>
</g>
<g fill="none" color="black" stroke="currentColor" stroke-width="1.00" stroke-linecap="butt" stroke-linejoin="miter">
	<path stroke='black'  d='M62.2,278.9 L71.2,278.9 M615.0,278.9 L606.0,278.9  '/>	<g transform="translate(53.9,282.8)" stroke="none" fill="black" font-family="Arial" font-size="12.00"  text-anchor="end">
		<text><tspan font-family="Arial" > 1900</tspan></text>
	</g>
</g>
<g fill="none" color="black" stroke="currentColor" stroke-width="1.00" stroke-linecap="butt" stroke-linejoin="miter">
	<path stroke='black'  d='M62.2,196.2 L71.2,196.2 M615.0,196.2 L606.0,196.2  '/>	<g transform="translate(53.9,200.1)" stroke="none" fill="black" font-family="Arial" font-size="12.00"  text-anchor="end">
		<text><tspan font-family="Arial" > 1950</tspan></text>
	</g>
</g>
<g fill="none" color="black" stroke="currentColor" stroke-width="1.00" stroke-linecap="butt" stroke-linejoin="miter">
	<path stroke='black'  d='M62.2,113.5 L71.2,113.5 M615.0,113.5 L606.0,113.5  '/>	<g transform="translate(53.9,117.4)" stroke="none" fill="black" font-family="Arial" font-size="12.00"  text-anchor="end">
		<text><tspan font-family="Arial" > 2000</tspan></text>
	</g>
</g>
<g fill="none" color="black" stroke="currentColor" stroke-width="1.00" stroke-linecap="butt" stroke-linejoin="miter">
	<path stroke='black'  d='M62.2,30.7 L71.2,30.7 M615.0,30.7 L606.0,30.7  '/>	<g transform="translate(53.9,34.6)" stroke="none" fill="black" font-family="Arial" font-size="12.00"  text-anchor="end">
		<text><tspan font-family="Arial" > 2050</tspan></text>
	</g>
</g>
<g fill="none" color="black" stroke="currentColor" stroke-width="1.00" stroke-linecap="butt" stroke-linejoin="miter">
	<path stroke='black'  d='M62.2,428.0 L62.2,419.0 M62.2,18.1 L62.2,27.1  '/>	<g transform="translate(62.2,449.9)" stroke="none" fill="black" font-family="Arial" font-size="12.00"  text-anchor="middle">
		<text><tspan font-family="Arial" > 0</tspan></text>
	</g>
</g>
<g fill="none" color="black" stroke="currentColor" stroke-width="1.00" stroke-linecap="butt" stroke-linejoin="miter">
	<path stroke='black'  d='M118.0,428.0 L118.0,419.0 M118.0,18.1 L118.0,27.1  '/>	<g transform="translate(118.0,449.9)" stroke="none" fill="black" font-family="Arial" font-size="12.00"  text-anchor="middle">
		<text><tspan font-family="Arial" > 10</tspan></text>
	</g>
</g>
<g fill="none" color="black" stroke="currentColor" stroke-width="1.00" stroke-linecap="butt" stroke-linejoin="miter">
	<path stroke='black'  d='M173.9,428.0 L173.9,419.0 M173.9,18.1 L173.9,27.1  '/>	<g transform="translate(173.9,449.9)" stroke="none" fill="black" font-family="Arial" font-size="12.00"  text-anchor="middle">
		<text><tspan font-family="Arial" > 20</tspan></text>
	</g>
</g>
<g fill="none" color="black" stroke="currentColor" stroke-width="1.00" stroke-linecap="butt" stroke-linejoin="miter">
	<path stroke='black'  d='M229.7,428.0 L229.7,419.0 M229.7,18.1 L229.7,27.1  '/>	<g transform="translate(229.7,449.9)" stroke="none" fill="black" font-family="Arial" font-size="12.00"  text-anchor="middle">
		<text><tspan font-family="Arial" > 30</tspan></text>
	</g>
</g>
<g fill="none" color="black" stroke="currentColor" stroke-width="1.00" stroke-linecap="butt" stroke-linejoin="miter">
	<path stroke='black'  d='M285.6,428.0 L285.6,419.0 M285.6,18.1 L285.6,27.1  '/>	<g transform="translate(285.6,449.9)" stroke="none" fill="black" font-family="Arial" font-size="12.00"  text-anchor="middle">
		<text><tspan font-family="Arial" > 40</tspan></text>
	</g>
</g>
<g fill="none" color="black" stroke="currentColor" stroke-width="1.00" stroke-linecap="butt" stroke-linejoin="miter">
	<path stroke='black'  d='M341.4,428.0 L341.4,419.0 M341.4,18.1 L341.4,27.1  '/>	<g transform="translate(341.4,449.9)" stroke="none" fill="black" font-family="Arial" font-size="12.00"  text-anchor="middle">
		<text><tspan font-family="Arial" > 50</tspan></text>
	</g>
</g>
<g fill="none" color="black" stroke="currentColor" stroke-width="1.00" stroke-linecap="butt" stroke-linejoin="miter">
	<path stroke='black'  d='M397.2,428.0 L397.2,419.0 M397.2,18.1 L397.2,27.1  '/>	<g transform="translate(397.2,449.9)" stroke="none" fill="black" font-family="Arial" font-size="12.00"  text-anchor="middle">
		<text><tspan font-family="Arial" > 60</tspan></text>
	</g>
</g>
<g fill="none" color="black" stroke="currentColor" stroke-width="1.00" stroke-linecap="butt" stroke-linejoin="miter">
	<path stroke='black'  d='M453.1,428.0 L453.1,419.0 M453.1,18.1 L453.1,27.1  '/>	<g transform="translate(453.1,449.9)" stroke="none" fill="black" font-family="Arial" font-size="12.00"  text-anchor="middle">
		<text><tspan font-family="Arial" > 70</tspan></text>
	</g>
</g>
<g fill="none" color="black" stroke="currentColor" stroke-width="1.00" stroke-linecap="butt" stroke-linejoin="miter">
	<path stroke='black'  d='M508.9,428.0 L508.9,419.0 M508.9,18.1 L508.9,27.1  '/>	<g transform="translate(508.9,449.9)" stroke="none" fill="black" font-family="Arial" font-size="12.00"  text-anchor="middle">
		<text><tspan font-family="Arial" > 80</tspan></text>
	</g>
</g>
<g fill="none" color="black" stroke="currentColor" stroke-width="1.00" stroke-linecap="butt" stroke-linejoin="miter">
	<path stroke='black'  d='M564.7,428.0 L564.7,419.0 M564.7,18.1 L564.7,27.1  '/>	<g transform="translate(564.7,449.9)" stroke="none" fill="black" font-family="Arial" font-size="12.00"  text-anchor="middle">
		<text><tspan font-family="Arial" > 90</tspan></text>
	</g>
</g>
<g fill="none" color="black" stroke="currentColor" stroke-width="1.00" stroke-linecap="butt" stroke-linejoin="miter">
</g>
<g fill="none" color="black" stroke="currentColor" stroke-width="1.00" stroke-linecap="butt" stroke-linejoin="miter">
	<path stroke='black'  d='M62.2,18.1 L62.2,428.0 L615.0,428.0 L615.0,18.1 L62.2,18.1 Z  '/></g>
<g fill="none" color="black" stroke="currentColor" stroke-width="1.00" stroke-linecap="butt" stroke-linejoin="miter">
</g>
	<g id="gnuplot_plot_1" ><title>pages+cached+noexternal+nosvg</title>
<g fill="none" color="black" stroke="currentColor" stroke-width="1.00" stroke-linecap="butt" stroke-linejoin="miter">
	<g transform="translate(279.8,467.9)" stroke="none" fill="black" font-family="Arial" font-size="12.00"  text-anchor="end">
		<text><tspan font-family="Arial" >pages+cached+noexternal+nosvg</tspan></text>
	</g>
</g>
<g fill="none" color="black" stroke="currentColor" stroke-width="1.00" stroke-linecap="butt" stroke-linejoin="miter">
	<path stroke='rgb(148,   0, 211)'  d='M288.1,464.0 L330.3,464.0 M62.2,417.2 L67.8,417.3 L73.4,411.6 L79.0,414.3 L84.5,415.8 L90.1,417.6
		L95.7,408.6 L101.3,408.3 L106.9,412.7 L112.5,410.8 L118.0,411.8 L123.6,414.0 L129.2,26.0 L134.8,417.5
		L140.4,409.3 L146.0,409.8 L151.5,415.7 L157.1,416.1 L162.7,413.5 L168.3,40.6 L173.9,411.6 L179.5,414.1
		L185.0,413.9 L190.6,411.6 L196.2,415.3 L201.8,413.3 L207.4,410.5 L213.0,413.3 L218.5,415.7 L224.1,416.3
		L229.7,411.5 L235.3,410.7 L240.9,410.7 L246.5,418.1 L252.1,411.3 L257.6,33.6 L263.2,35.0 L268.8,410.1
		L274.4,412.9 L280.0,413.4 L285.6,412.0 L291.1,414.1 L296.7,412.5 L302.3,408.6 L307.9,410.4 L313.5,414.3
		L319.1,416.3 L324.6,413.3 L330.2,410.9 L335.8,406.1 L341.4,33.5 L347.0,411.0 L352.6,414.1 L358.1,410.5
		L363.7,412.3 L369.3,419.6 L374.9,413.7 L380.5,406.4 L386.1,412.2 L391.6,416.2 L397.2,405.5 L402.8,416.3
		L408.4,412.4 L414.0,415.8 L419.6,415.0 L425.1,414.1 L430.7,416.4 L436.3,28.5 L441.9,414.6 L447.5,414.7
		L453.1,416.1 L458.7,417.7 L464.2,412.6 L469.8,410.4 L475.4,412.7 L481.0,413.2 L486.6,418.4 L492.2,411.8
		L497.7,408.6 L503.3,415.3 L508.9,411.1 L514.5,416.7 L520.1,417.6 L525.7,416.6 L531.2,413.4 L536.8,413.7
		L542.4,410.1 L548.0,411.7 L553.6,411.5 L559.2,411.7 L564.7,417.5 L570.3,415.9 L575.9,412.2 L581.5,416.6
		L587.1,407.8 L592.7,411.9 L598.2,415.7 L603.8,414.0 L609.4,412.6 L615.0,411.4  '/></g>
	</g>
	<g id="gnuplot_plot_2" ><title>pages+cached+noexternal+noimg</title>
<g fill="none" color="black" stroke="currentColor" stroke-width="1.00" stroke-linecap="butt" stroke-linejoin="miter">
	<g transform="translate(279.8,485.9)" stroke="none" fill="black" font-family="Arial" font-size="12.00"  text-anchor="end">
		<text><tspan font-family="Arial" >pages+cached+noexternal+noimg</tspan></text>
	</g>
</g>
<g fill="none" color="black" stroke="currentColor" stroke-width="1.00" stroke-linecap="butt" stroke-linejoin="miter">
	<path stroke='rgb(  0, 158, 115)'  d='M288.1,482.0 L330.3,482.0 M62.2,414.3 L67.8,416.3 L73.4,413.1 L79.0,413.9 L84.5,40.8 L90.1,36.7
		L95.7,34.8 L101.3,418.2 L106.9,37.8 L112.5,37.9 L118.0,37.3 L123.6,413.8 L129.2,157.1 L134.8,37.6
		L140.4,413.3 L146.0,33.4 L151.5,35.9 L157.1,160.4 L162.7,35.6 L168.3,35.1 L173.9,414.6 L179.5,33.0
		L185.0,415.5 L190.6,36.3 L196.2,418.6 L201.8,35.9 L207.4,159.3 L213.0,41.5 L218.5,34.8 L224.1,38.6
		L229.7,40.2 L235.3,29.6 L240.9,419.3 L246.5,157.0 L252.1,45.9 L257.6,413.4 L263.2,30.5 L268.8,163.5
		L274.4,36.7 L280.0,34.6 L285.6,414.4 L291.1,410.3 L296.7,413.3 L302.3,39.5 L307.9,165.0 L313.5,415.1
		L319.1,163.0 L324.6,37.8 L330.2,37.8 L335.8,412.1 L341.4,43.1 L347.0,416.0 L352.6,159.0 L358.1,32.8
		L363.7,420.0 L369.3,36.8 L374.9,40.3 L380.5,35.6 L386.1,416.0 L391.6,162.0 L397.2,37.9 L402.8,33.4
		L408.4,417.3 L414.0,415.3 L419.6,34.1 L425.1,416.7 L430.7,166.9 L436.3,41.0 L441.9,414.0 L447.5,32.9
		L453.1,161.8 L458.7,40.2 L464.2,418.3 L469.8,414.5 L475.4,38.8 L481.0,420.1 L486.6,44.1 L492.2,35.3
		L497.7,158.9 L503.3,417.6 L508.9,159.0 L514.5,35.9 L520.1,415.2 L525.7,163.2 L531.2,416.0 L536.8,419.8
		L542.4,31.7 L548.0,37.1 L553.6,412.4 L559.2,415.3 L564.7,40.0 L570.3,36.9 L575.9,413.1 L581.5,33.4
		L587.1,35.3 L592.7,34.8 L598.2,416.1 L603.8,35.8 L609.4,168.0 L615.0,36.7  '/></g>
	</g>
	<g id="gnuplot_plot_3" ><title>score p10=3572</title>
<g fill="none" color="black" stroke="currentColor" stroke-width="1.00" stroke-linecap="butt" stroke-linejoin="miter">
	<g transform="translate(579.3,467.9)" stroke="none" fill="black" font-family="Arial" font-size="12.00"  text-anchor="end">
		<text><tspan font-family="Arial" >score p10=3572</tspan></text>
	</g>
</g>
<g fill="none" color="black" stroke="currentColor" stroke-width="1.00" stroke-linecap="butt" stroke-linejoin="miter">
	<path stroke='rgb( 86, 180, 233)'  d='M587.6,464.0 L629.8,464.0  '/></g>
	</g>
	<g id="gnuplot_plot_4" ><title>score median=6500</title>
<g fill="none" color="black" stroke="currentColor" stroke-width="1.00" stroke-linecap="butt" stroke-linejoin="miter">
	<g transform="translate(579.3,485.9)" stroke="none" fill="black" font-family="Arial" font-size="12.00"  text-anchor="end">
		<text><tspan font-family="Arial" >score median=6500</tspan></text>
	</g>
</g>
<g fill="none" color="black" stroke="currentColor" stroke-width="1.00" stroke-linecap="butt" stroke-linejoin="miter">
	<path stroke='rgb(230, 159,   0)'  d='M587.6,482.0 L629.8,482.0  '/></g>
	</g>
<g fill="none" color="#FFFFFF" stroke="rgb(230, 159,   0)" stroke-width="2.00" stroke-linecap="butt" stroke-linejoin="miter">
</g>
<g fill="none" color="black" stroke="currentColor" stroke-width="2.00" stroke-linecap="butt" stroke-linejoin="miter">
</g>
<g fill="none" color="black" stroke="black" stroke-width="1.00" stroke-linecap="butt" stroke-linejoin="miter">
</g>
<g fill="none" color="black" stroke="currentColor" stroke-width="1.00" stroke-linecap="butt" stroke-linejoin="miter">
	<path stroke='black'  d='M62.2,18.1 L62.2,428.0 L615.0,428.0 L615.0,18.1 L62.2,18.1 Z  '/></g>
<g fill="none" color="black" stroke="currentColor" stroke-width="1.00" stroke-linecap="butt" stroke-linejoin="miter">
</g>
</g>
</svg>
